X:18018
T:Unknown Strathspey
S:irtrad-l, 5/98, P. Varlet
M:4/4
L:1/8
Q:190
N:as played by Micmac Indian, Lee Cremo
R:strathspey
K:G
DGGA (3GGG GB | dBgB (3AAA AB | GAGF EDEG|
1 DCB,A, (3G,G,G, G,B, :|2  DCB,A, (3G,G,G, G,2 ||
gage (3ggg ge | gbag {a}geef | gdeg dgBd | AGAB (3GGG G2 |
gage (3ggg ge | gbag {a}geef | gdeg dgBb | agab (3ggg g2 ||
